docs/img/footer-logo.svg

<svg width="147" height="146" viewBox="0 0 147 146" fill="none" xmlns="http://www.w3.org/2000/svg">
<path d="M99.5721 39.1742C99.6368 41.8086 102.33 47.4201 112.583 48.7904C125.399 50.5033 148.742 54.7341 145.208 41.3164C141.675 27.8987 118.887 36.9521 113.759 43.8544C108.338 51.1527 113.13 57.8745 114.258 60.8342C116.159 63.9642 121.273 70.4111 126.515 71.1583C133.067 72.0923 139.299 71.554 137.974 67.1256C137.179 64.4686 131.039 64.376 128.39 64.9278C123.619 65.5113 120.701 69.1759 120.028 72.8587C118.883 79.1119 125.446 86.71 125.73 87.0748C127.485 89.329 134.235 93.3403 137.525 93.4359C141.809 93.5604 142.241 92.2657 142.241 92.2657" stroke="#BB9930" stroke-width="0.890244" stroke-linecap="round"/>
<circle cx="75.2316" cy="80.5666" r="15.1341" fill="#BB9930" stroke="#BB9930" stroke-width="0.890244"/>
<circle cx="104.61" cy="82.3478" r="10.6829" fill="#BB9930" stroke="#BB9930" stroke-width="0.890244"/>
<circle cx="93.4728" cy="56.0861" r="12.9085" fill="#BB9930" stroke="#BB9930" stroke-width="0.890244"/>
<circle cx="59.6478" cy="55.1956" r="10.2378" fill="#BB9930" stroke="#BB9930" stroke-width="0.890244"/>
<circle cx="47.1892" cy="79.2321" r="9.34756" fill="#BB9930" stroke="#BB9930" stroke-width="0.890244"/>
<path d="M66.9801 32.9961C65.3124 35.0365 59.7429 37.815 50.8061 32.6053C39.6351 26.0932 18.608 15.1104 29.6313 6.684C40.6547 -1.74245 53.0929 19.3897 52.906 27.9859C52.7083 37.0753 44.7995 39.442 42.0934 41.0874C38.671 42.3919 30.677 44.3442 26.0797 41.7177C20.333 38.4347 15.7425 34.1854 19.5064 31.5021C21.7647 29.8921 26.6692 33.5863 28.4227 35.6478C31.8318 39.0362 31.8865 43.7198 30.1588 47.0412C27.2251 52.6808 17.3809 54.6534 16.9329 54.7671C14.1637 55.47 6.37301 54.4957 3.71602 52.552C0.257395 50.0218 0.710306 48.7341 0.710306 48.7341" stroke="#BB9930" stroke-width="0.890244" stroke-linecap="round"/>
<path d="M76.5602 56.9747C73.5208 52.0965 69.244 39.8967 72.2327 25.1237C72.2764 24.9076 72.3217 24.6909 72.3686 24.4737C72.96 21.7323 73.8033 18.9056 74.9521 16.0234" stroke="#BB9930" stroke-width="2.67073" stroke-linecap="round"/>
<path d="M72.1172 27.213C74.7672 28.1438 77.765 28.3299 82.8001 27.2129" stroke="#BB9930" stroke-width="1.78049" stroke-linecap="round"/>
<circle cx="53.4216" cy="100.597" r="9.34756" fill="#BB9930" stroke="#BB9930" stroke-width="0.890244"/>
<circle cx="72.9985" cy="105.938" r="7.56707" fill="#BB9930" stroke="#BB9930" stroke-width="0.890244"/>
<circle cx="92.5896" cy="103.268" r="9.34756" fill="#BB9930" stroke="#BB9930" stroke-width="0.890244"/>
<circle cx="70.3368" cy="121.964" r="6.67683" fill="#BB9930" stroke="#BB9930" stroke-width="0.890244"/>
<circle cx="86.3544" cy="120.182" r="6.67683" fill="#BB9930" stroke="#BB9930" stroke-width="0.890244"/>
<circle cx="81.0211" cy="133.535" r="4.89634" fill="#BB9930" stroke="#BB9930" stroke-width="0.890244"/>
<circle cx="95.2614" cy="132.646" r="4.89634" fill="#BB9930" stroke="#BB9930" stroke-width="0.890244"/>
<circle cx="42.7379" cy="62.318" r="4.89634" fill="#BB9930" stroke="#BB9930" stroke-width="0.890244"/>
<circle cx="62.7682" cy="112.614" r="2.67073" fill="#BB9930" stroke="#BB9930" stroke-width="0.890244"/>
<circle cx="65.8793" cy="40.059" r="3.11585" fill="#BB9930" stroke="#BB9930" stroke-width="0.890244"/>
<circle cx="109.948" cy="66.3209" r="2.67073" fill="#BB9930" stroke="#BB9930" stroke-width="0.890244"/>
<circle cx="89.9145" cy="140.66" r="3.11585" fill="#BB9930" stroke="#BB9930" stroke-width="0.890244"/>
<circle cx="98.8227" cy="118.403" r="3.11585" fill="#BB9930" stroke="#BB9930" stroke-width="0.890244"/>
<path d="M105.345 14.5182L104.9 14.5075L104.9 14.5071L104.9 14.5054L104.9 14.4982L104.901 14.4691L104.903 14.3547C104.905 14.2542 104.907 14.1063 104.91 13.9177C104.914 13.5404 104.918 13.0002 104.915 12.3498C104.91 11.0483 104.88 9.30854 104.777 7.55034C104.675 5.78796 104.502 4.02483 104.215 2.66941C104.072 1.98954 103.905 1.43521 103.716 1.04077C103.516 0.623667 103.342 0.491869 103.248 0.465024C103.081 0.417145 102.767 0.446508 102.268 0.650365C101.79 0.846192 101.217 1.17098 100.577 1.5963C99.2992 2.44558 97.8126 3.65627 96.372 4.91163C94.9338 6.16488 93.5532 7.45214 92.4878 8.44998C92.4136 8.51944 92.3409 8.58755 92.2698 8.65418C91.8315 9.0649 91.453 9.41946 91.1582 9.68908C90.987 9.84561 90.8403 9.97688 90.7244 10.0754C90.626 10.159 90.506 10.2579 90.4075 10.3074C90.2718 10.3754 90.1418 10.3627 90.0618 10.3418C89.9844 10.3216 89.9241 10.2869 89.8862 10.2622C89.81 10.2124 89.7416 10.147 89.6874 10.0906C89.5742 9.97273 89.4417 9.80711 89.3026 9.62411C89.148 9.42067 88.9643 9.16716 88.7691 8.89789C88.617 8.68794 88.4579 8.4684 88.3002 8.25553C87.9291 7.75447 87.5487 7.26588 87.2061 6.90532C87.0344 6.72455 86.8839 6.58864 86.7591 6.50095C86.6386 6.41627 86.5849 6.40721 86.5851 6.40626C86.5851 6.40613 86.5861 6.40615 86.5881 6.40615C85.9518 6.40615 85.0461 6.81242 84.0778 7.72457C83.1235 8.62357 82.1583 9.96951 81.403 11.7314C80.9445 12.8009 80.8627 13.9615 80.8216 14.9473C80.8184 15.0245 80.8154 15.1013 80.8125 15.1775C80.7972 15.5712 80.7826 15.9462 80.7405 16.2457C80.7151 16.4263 80.6761 16.6108 80.6059 16.7726C80.5349 16.936 80.4148 17.1152 80.2062 17.2198C79.9262 17.3602 79.0343 17.8464 78.1325 18.4191C77.6821 18.7051 77.2362 19.0083 76.8658 19.2971C76.5186 19.5678 76.2688 19.8024 76.1348 19.9806C76.1354 19.9821 76.136 19.9837 76.1367 19.9853C76.1677 20.0611 76.2456 20.1823 76.3956 20.3463C76.6911 20.6694 77.1782 21.064 77.7954 21.4794C79.0255 22.3074 80.6842 23.16 82.1219 23.6393C82.4762 23.7574 83.0007 23.8947 83.609 24.0539L83.6573 24.0666C84.2775 24.229 84.9697 24.4111 85.6056 24.6092C86.2347 24.8052 86.8406 25.0264 87.2751 25.2745C87.4896 25.397 87.6987 25.546 87.8429 25.7308C87.9761 25.9015 88.07 26.1285 88.0284 26.3828C88.0308 26.4524 88.0196 26.516 88.0036 26.5683C87.9741 26.6652 87.9235 26.7436 87.8819 26.7989C87.7984 26.9101 87.6806 27.0193 87.5596 27.1206C87.3122 27.3278 86.9491 27.5849 86.529 27.8777C86.4491 27.9333 86.3667 27.9906 86.2819 28.0495C85.4614 28.6198 84.4222 29.3421 83.3749 30.2057C81.0419 32.1296 78.8166 34.6381 78.8065 37.5354C78.8739 37.5676 78.9861 37.6073 79.1559 37.6467C79.6034 37.7504 80.2582 37.8108 80.9781 37.8519C81.3966 37.8759 81.8109 37.8922 82.2084 37.9079C82.5023 37.9195 82.7871 37.9307 83.0576 37.9444C83.3656 37.96 83.6482 37.9786 83.878 38.0047C83.9928 38.0178 84.1011 38.0335 84.1963 38.0532C84.2848 38.0715 84.3906 38.0989 84.4842 38.1458C84.6749 38.2415 84.7788 38.4128 84.8357 38.5291C84.8979 38.6563 84.9436 38.8022 84.9803 38.9407C85.0213 39.0954 85.0631 39.2937 85.1038 39.4863C85.1308 39.614 85.1572 39.7392 85.1825 39.8475C85.255 40.158 85.3328 40.4082 85.4296 40.5746C85.5009 40.6971 85.5502 40.724 85.58 40.7299C86.1291 40.6486 86.8328 40.4953 87.6526 40.3091C87.8071 40.2741 87.9654 40.2379 88.1272 40.2009C88.839 40.0382 89.6169 39.8605 90.4229 39.6952C92.3951 39.291 94.5846 38.9508 96.4919 39.0871C97.752 39.1771 99.1223 39.799 100.478 40.6094C101.817 41.4099 103.197 42.4291 104.507 43.3969L104.581 43.4515C105.925 44.4438 107.186 45.3714 108.293 45.9926C108.846 46.3026 109.341 46.5253 109.773 46.643C110.206 46.7611 110.542 46.7641 110.799 46.6785C110.941 46.6309 111.074 46.5161 111.183 46.2612C111.296 45.9977 111.366 45.6186 111.381 45.1236C111.411 44.1362 111.223 42.8153 110.9 41.3466C110.254 38.418 109.094 35.0186 108.221 32.7814L108.07 32.3932L108.447 32.2165C111.009 31.0169 114.783 28.99 117.777 26.8127C119.277 25.7223 120.558 24.6101 121.396 23.5606C122.25 22.4917 122.559 21.5967 122.358 20.8937C122.265 20.567 121.981 20.1964 121.462 19.797C120.952 19.4035 120.26 19.0173 119.434 18.6451C117.783 17.9013 115.664 17.2423 113.558 16.6933C111.457 16.1452 109.385 15.7112 107.838 15.414C107.065 15.2655 106.424 15.1514 105.976 15.0744C105.752 15.0359 105.577 15.0067 105.457 14.9872L105.322 14.9652L105.287 14.9597L105.279 14.9584L105.277 14.958L105.276 14.958L105.345 14.5182ZM105.345 14.5182L104.9 14.5076L104.891 14.8976L105.276 14.9579L105.345 14.5182ZM78.7419 37.4974C78.7419 37.4974 78.7423 37.4977 78.743 37.4984L78.7419 37.4974Z" fill="#BB9930" stroke="#BB9930" stroke-width="0.890244" stroke-linecap="round"/>
</svg>

<svg width="147" height="146" fill="none" xmlns="http://www.w3.org/2000/svg"><path d="M99.572 39.174c.065 2.635 2.758 8.246 13.011 9.616 12.816 1.713 36.159 5.944 32.625-7.474-3.533-13.417-26.321-4.364-31.449 2.538-5.421 7.299-.629 14.02.499 16.98 1.901 3.13 7.015 9.577 12.257 10.324 6.552.934 12.784.396 11.459-4.032-.795-2.657-6.935-2.75-9.584-2.198-4.771.583-7.689 4.248-8.362 7.93-1.145 6.254 5.418 13.852 5.702 14.217 1.755 2.254 8.505 6.265 11.795 6.36 4.284.125 4.716-1.17 4.716-1.17" stroke="#BB9930" stroke-width=".89" stroke-linecap="round"/><circle cx="75.232" cy="80.567" r="15.134" fill="#BB9930" stroke="#BB9930" stroke-width=".89"/><circle cx="104.61" cy="82.348" r="10.683" fill="#BB9930" stroke="#BB9930" stroke-width=".89"/><circle cx="93.473" cy="56.086" r="12.909" fill="#BB9930" stroke="#BB9930" stroke-width=".89"/><circle cx="59.648" cy="55.196" r="10.238" fill="#BB9930" stroke="#BB9930" stroke-width=".89"/><circle cx="47.189" cy="79.232" r="9.348" fill="#BB9930" stroke="#BB9930" stroke-width=".89"/><path d="M66.98 32.996c-1.668 2.04-7.237 4.819-16.174-.39-11.17-6.513-32.198-17.496-21.175-25.922C40.655-1.742 53.093 19.39 52.906 27.986c-.198 9.09-8.106 11.456-10.813 13.101-3.422 1.305-11.416 3.257-16.013.63-5.747-3.282-10.337-7.532-6.574-10.215 2.259-1.61 7.163 2.084 8.917 4.146 3.409 3.388 3.464 8.072 1.736 11.393-2.934 5.64-12.778 7.612-13.226 7.726-2.77.703-10.56-.271-13.217-2.215C.257 50.022.71 48.734.71 48.734" stroke="#BB9930" stroke-width=".89" stroke-linecap="round"/><path d="M76.56 56.975c-3.04-4.879-7.316-17.078-4.327-31.851a52.973 52.973 0 012.72-9.1" stroke="#BB9930" stroke-width="2.671" stroke-linecap="round"/><path d="M72.117 27.213c2.65.93 5.648 1.117 10.683 0" stroke="#BB9930" stroke-width="1.78" stroke-linecap="round"/><circle cx="53.422" cy="100.597" r="9.348" fill="#BB9930" stroke="#BB9930" stroke-width=".89"/><circle cx="72.999" cy="105.938" r="7.567" fill="#BB9930" stroke="#BB9930" stroke-width=".89"/><circle cx="92.59" cy="103.268" r="9.348" fill="#BB9930" stroke="#BB9930" stroke-width=".89"/><circle cx="70.337" cy="121.964" r="6.677" fill="#BB9930" stroke="#BB9930" stroke-width=".89"/><circle cx="86.354" cy="120.182" r="6.677" fill="#BB9930" stroke="#BB9930" stroke-width=".89"/><circle cx="81.021" cy="133.535" r="4.896" fill="#BB9930" stroke="#BB9930" stroke-width=".89"/><circle cx="95.261" cy="132.646" r="4.896" fill="#BB9930" stroke="#BB9930" stroke-width=".89"/><circle cx="42.738" cy="62.318" r="4.896" fill="#BB9930" stroke="#BB9930" stroke-width=".89"/><circle cx="62.768" cy="112.614" r="2.671" fill="#BB9930" stroke="#BB9930" stroke-width=".89"/><circle cx="65.879" cy="40.059" r="3.116" fill="#BB9930" stroke="#BB9930" stroke-width=".89"/><circle cx="109.948" cy="66.321" r="2.671" fill="#BB9930" stroke="#BB9930" stroke-width=".89"/><circle cx="89.915" cy="140.66" r="3.116" fill="#BB9930" stroke="#BB9930" stroke-width=".89"/><circle cx="98.823" cy="118.403" r="3.116" fill="#BB9930" stroke="#BB9930" stroke-width=".89"/><path d="M105.345 14.518l-.445-.01h0v-.01l.001-.029.002-.114.007-.437c.004-.378.008-.918.005-1.568a90.135 90.135 0 00-.138-4.8c-.102-1.762-.275-3.525-.562-4.88-.143-.68-.31-1.235-.499-1.63-.2-.416-.374-.548-.468-.575-.167-.048-.481-.018-.98.185-.478.196-1.051.521-1.691.946-1.278.85-2.764 2.06-4.205 3.316a147.256 147.256 0 00-4.102 3.742c-.438.41-.817.765-1.112 1.035-.171.157-.318.288-.434.386a1.867 1.867 0 01-.317.232.492.492 0 01-.345.035.6.6 0 01-.176-.08 1.189 1.189 0 01-.199-.171 5.644 5.644 0 01-.384-.467c-.155-.203-.339-.457-.534-.726-.152-.21-.311-.43-.469-.642-.37-.502-.751-.99-1.094-1.35a3.184 3.184 0 00-.447-.405c-.12-.085-.174-.094-.174-.095h.003c-.636 0-1.542.406-2.51 1.319-.954.899-1.92 2.245-2.675 4.006-.459 1.07-.54 2.23-.581 3.216l-.01.23c-.015.394-.03.77-.072 1.069a2.06 2.06 0 01-.134.527.87.87 0 01-.4.447c-.28.14-1.172.626-2.074 1.2-.45.285-.896.588-1.266.877-.347.27-.597.505-.731.684l.002.004c.03.076.109.197.259.361.295.323.782.718 1.4 1.133 1.23.828 2.888 1.681 4.326 2.16.354.118.879.256 1.487.415l.048.013c.62.162 1.313.344 1.949.542.629.196 1.235.417 1.67.665.214.123.423.272.567.457.133.17.227.397.185.652a.57.57 0 01-.024.185.752.752 0 01-.122.23 2.089 2.089 0 01-.322.323c-.248.207-.61.464-1.031.757l-.247.171c-.82.57-1.86 1.293-2.907 2.157-2.333 1.924-4.558 4.432-4.569 7.33.068.032.18.071.35.11.447.104 1.102.165 1.822.206.419.024.833.04 1.23.056.294.011.58.023.85.036.308.016.59.035.82.06.115.014.223.03.318.05.089.017.195.045.288.092.19.096.295.267.352.383.062.127.108.273.144.412.041.154.083.353.124.545.027.128.053.253.079.361.072.311.15.561.247.728.07.122.12.149.15.155.55-.081 1.253-.235 2.073-.42l.474-.11c.712-.162 1.49-.34 2.296-.505 1.972-.404 4.162-.744 6.069-.608 1.26.09 2.63.712 3.986 1.522 1.339.8 2.719 1.82 4.029 2.788l.074.055c1.344.992 2.605 1.92 3.712 2.54.553.31 1.048.533 1.48.651.433.118.769.121 1.026.035.142-.047.275-.162.384-.417.113-.263.183-.642.198-1.137.03-.988-.158-2.309-.481-3.777-.646-2.929-1.806-6.328-2.679-8.566l-.151-.388.377-.176c2.562-1.2 6.336-3.227 9.33-5.404 1.5-1.09 2.781-2.203 3.619-3.252.854-1.07 1.163-1.964.962-2.667-.093-.327-.377-.698-.896-1.097-.51-.393-1.202-.78-2.028-1.152-1.651-.744-3.77-1.403-5.876-1.952a91.889 91.889 0 00-5.72-1.279 97.568 97.568 0 00-2.381-.427l-.135-.022-.035-.005-.008-.002h-.003l.069-.44zm0 0l-.445-.01-.009.39.385.06.069-.44zm-26.603 22.98h.001-.001z" fill="#BB9930" stroke="#BB9930" stroke-width=".89" stroke-linecap="round"/></svg>
